X:019 
T:Blacksmith Reilly's Reel, The 
F:file ID: cre.5/019black_r
B:CRE5.143 (Ril an Gabha UÃÂÃÂÃÂÃÂ­ Raghallaigh)
M:4/4
Q:180
R:reel
K:D
dAA2 AFFD|Dffe fBBc|dA ~A2 AFFD|EDEF D2D2:|
defg afdf|edef g2fe|defg afdf|edef d2dA|
defg afdf|eBde g2fg|afdf abeg|fdec dgfe|
"last time"d8||

%%%

